X: 11036
T: GOVERNOR JEAN'S JIG
C: Bob McQuillen 1 June 99
B: Bob's Note Book 11 #36
R: jig
Z: 2020 John Chambers <jc:trillian.mit.edu>
M: 6/8
L: 1/8
K: G
E \
| D2G GFG | B2A G2B | d2d edc | BAG FGA |\
| DEF G2G | ABc d2D | EcB AGF | G3- G2 :|
|: B \
| dBd edc | BdB G2B | AcB ABG | FGA D2D |\
| EGc e2E | DGB d2D | EcB AGF | G3- G2 :|
%%begintext align
%% With great appreciation to
%% New Hampshire's Head of State, Governor
%% Jean Shaheen, and sincert best wishes
%% always from Bob McQuillen
%%endtext

%%sep 1 1 500

%%sep 1 1 500

